X:531
T:Coffins Off The Peg
C:Joe Buchanan's Scottish Tome - Page 036.1
I:036 1
C:Willie Shankie
R:Reel
Z:Carl Allison
L:1/8
M:4/4
K:D
A2 |"D" de/f/ "A7"ed/c/ "D"d2 "D7"F2 | "G"GA/B/ "A7"A>G "D"((3FGA) D>F | "Em"GA/B/ "A7"AF/G/ "D"FA d>A | "E7"^GE e>d "A7"cA FE |
"D" de/f/ "A" ed/c/ "D"d2 "D7"F2 | "G"GA/B/ "A7"A>G "D"((3FGA) D>F | "Em"GA/B/ "A7"EF/G/ "D"FA d>A | "Em" GE "A7"Ac "D"d2 :|
d2 | "F#m"c2 de "Bm"dc B2 | "F#7"^A2 Bc "B7"B2 F2 | "Em"GA/B/2 "A7"E/F/G/ "D"FA d>A | "E7"^GE e>d "A7"cA fe |
"D"de/2f/2 "A7"ed/c/ "D"d2 "D7"F2 | "G"GA/B/ "A7"A>G "D"((3FGA) D>F | "Em"GA/B/ "A7"EF/G/ ""FA d>A | "Em"GE "A7"Ac "D"d2 :|
